!!!COM:	Isaac, Heinrich
!!!CDT:	~1450-1517/03/26
!!!OTL:	Credo IV
!!!AGN:	Mass; Credo
!!!SCT:	Isa1041
!!!SCA:	Isa1041
!!!voices:	4
**kern	**kern	**kern	**kern
*staff4	*staff3	*staff2	*staff1
*Ivox	*Ivox	*Ivox	*Ivox
*I"Bassus	*I"Tenor	*I"Altus	*I"Discantus
*I'B	*I'T	*I'A	*I'D
*>[A,B,C,D]	*>[A,B,C,D]	*>[A,B,C,D]	*>[A,B,C,D]
*>A	*>A	*>A	*>A
*clefF4	*clefGv2	*clefGv2	*clefG2
*k[b-]	*k[b-]	*k[b-]	*k[b-]
*M2/1	*M2/1	*M2/1	*M2/1
*met(C|)	*met(C|)	*met(C|)	*met(C|)
!!section: Patrem omnipotentem
!!!OMD: Patrem omnipotentem
=1-	=1-	=1-	=1-
0r	0r	1d	1dd
.	.	1e	1g
=2	=2	=2	=2
1D	1d	1d	0r
1E	1G	2r	.
.	.	[2g\	.
=3	=3	=3	=3
1D	1d	2g\]	2r
.	.	2f\	2dd\
1r	2c\	2g\	2ee\
.	2B-\	2d\	[2dd\
=4	=4	=4	=4
0r	1A	2e\	2dd\]
.	.	2f\	1cc
.	1G	1d	.
.	.	.	2bni\
=5	=5	=5	=5
2r	1r	1c	0cc
2A\	.	.	.
2.c\	2r	1r	.
.	2A/	.	.
4B-\	.	.	.
=6	=6	=6	=6
2A\	2c\	0r	0r
2F\	2d\	.	.
2G\	1e	.	.
2A\	.	.	.
=7	=7	=7	=7
2.D\	2.f\	1r	1r
4E\	4e\	.	.
4F\	2d\	2r	2r
4G\	.	.	.
2E\	2c#i\	2g\	2ee\
=8	=8	=8	=8
1D	1d	2b-\	1ff
.	.	2a\	.
1r	1r	2g\	2.gg\
.	.	2c\	.
.	.	.	4ff\
=9	=9	=9	=9
0r	0r	2.g\	2ee\
.	.	.	2dd\
.	.	4f\	.
.	.	2e\	2cc\
.	.	2d\	2bni\
=10	=10	=10	=10
2r	2r	1c	1cc
1A	2e\	.	.
.	2.f\	1r	1r
2F\	.	.	.
.	4f\	.	.
=11	=11	=11	=11
2G\	2e\	0r	0r
2D\	2d\	.	.
2E\	2d\	.	.
2E\	2c#i\	.	.
=12	=12	=12	=12
1D	0d	2r	1r
.	.	2a\	.
1G	.	2d\	1dd
.	.	[2g\	.
=13	=13	=13	=13
0r	0r	2g\]	1g
.	.	1c	.
.	.	.	2.cc\
.	.	[2f\	.
.	.	.	4dd\
=14	=14	=14	=14
0r	0r	4f\]	4cc\
.	.	4g\	4b-\
.	.	4f\	4a/
.	.	4e\	4g/
.	.	4d\	2f/
.	.	4c\	.
.	.	2B-\	2g/
=15	=15	=15	=15
0r	0r	2c\	2a/
.	.	4d\	2b-\
.	.	4e\	.
.	.	4f\	4a/
.	.	4g\	4g/
.	.	4e\	2cc\
.	.	4c\	.
=16	=16	=16	=16
0r	0r	4d\	4b-\
.	.	4A/	4a/
.	.	2c\	1a
.	.	1B-	.
.	.	.	2g/
=17	=17	=17	=17
2r	1r	0A	0a
2A\	.	.	.
2.c\	2r	.	.
.	2A/	.	.
4B-\	.	.	.
=18	=18	=18	=18
2A\	2c\	0r	0r
2F\	2d\	.	.
2G\	2e\	.	.
2A\	2f\	.	.
=19	=19	=19	=19
4G\	2e\	1r	0r
4F\	.	.	.
4E\	2d\	.	.
4D\	.	.	.
1E	2d\	2r	.
.	2c#i\	2e\	.
=20	=20	=20	=20
1D	1d	1f	2.ff\
.	.	.	4ff\
1r	2c\	2g\	2ee\
.	2d\	2f\	2dd\
=21	=21	=21	=21
0r	1A	1e	2dd\
.	.	.	2cc#i\
.	1r	2d\	1dd
.	.	2d\	.
=22	=22	=22	=22
0r	0r	2G/	2r
.	.	2d\	2dd\
.	.	2c\	2g/
.	.	2B-\	2dd\
=23	=23	=23	=23
1r	1r	2.A/	2.cc\
.	.	4B-\	4b-\
2r	2r	4c\	2a/
.	.	4d\	.
2G\	2G/	2B-\	2g/
=24	=24	=24	=24
4D\	4F/	1A	1a
4E\	4G/	.	.
4F\	4A/	.	.
4G\	4B-\	.	.
2A\	2c\	1r	1r
2F\	2d\	.	.
=25	=25	=25	=25
2G\	2d\	2r	2r
2A\	2c#i\	2a\	2ee\
1D	1d	2.a\	2.ff\
.	.	4g\	4ee\
=26	=26	=26	=26
1r	1r	2f\	2dd\
.	.	2e\	2cc#i\
2r	2r	2d\	1dd
2G\	2d\	2g\	.
=27	=27	=27	=27
2.A\	2.c\	2.f\	1r
4G\	4B-\	4e\	.
2F\	2A/	2d\	2r
2E\	2G/	2c#i\	2g/
=28	=28	=28	=28
2D\	2A/	1d	2f/
2d\	2F/	.	4d/
.	.	.	4e/
2.c\	2.F/	1A	4f/
.	.	.	4g/
.	.	.	4a/
4B-\	4G/	.	4b-\
=29	=29	=29	=29
4A\	4A/	1r	4cc\
4G\	4B-\	.	4b-\
4F\	2c\	.	4a/
4E\	.	.	4g/
2D\	2B-\	2r	2b-\
2C/	2c\	2A/	[2a/
=30	=30	=30	=30
1E	1G	2B-\	4a/]
.	.	.	4g/
.	.	2c\	1g
1D	1A	1d	.
.	.	.	2f#i/
=31	=31	=31	=31
0Gl	0Gl	0dl	0gl
!!LO:LB:i:g=z
=32||	=32||	=32||	=32||
*>B	*>B	*>B	*>B
*clefF4	*clefGv2	*clefGv2	*clefG2
*k[b-]	*k[b-]	*k[b-]	*k[b-]
*M2/1	*M2/1	*M2/1	*M2/1
*met(C|)	*met(C|)	*met(C|)	*met(C|)
!!section: Genitum non factum
!!!OMD: Genitum non factum
0r	0r	3%2dV	3%2ddV
.	.	3e\Z	3cc\Z
.	.	3%2fV	3%2ddV
.	.	3e\Z	3ee\Z
=33	=33	=33	=33
0r	0r	3%2dV	3%2ffV
.	.	3c\Z	3ee\Z
.	.	3d\V	3%2ddV
.	.	3%2eZ	.
.	.	.	3cc#i\Z
=34	=34	=34	=34
3%2DV	3%2dV	3%2dV	1dd
3C/Z	3d\Z	3d\Z	.
3%2AV	3%2cV	3e\V	1r
.	.	3e\	.
3G\Z	3B-\Z	3e\Z	.
=35	=35	=35	=35
3%2FV	3%2AV	3%2fV	0r
3G\Z	3G/Z	3e\Z	.
3D\V	3F/V	3%2dV	.
3%2EZ	3%2GZ	.	.
.	.	3c#i\Z	.
=36	=36	=36	=36
2D\	0A	2d\	1r
2.A\	.	2A/	.
.	.	2c\	2r
4G\	.	.	.
2F\	.	2d\	2a/
=37	=37	=37	=37
2E\	0r	2e\	2cc\
2D\	.	2f\	2dd\
1G	.	4g\	4dd\
.	.	4a\	4cc\
.	.	[2b-\	4b-\
.	.	.	4a/
=38	=38	=38	=38
1r	0r	4b-\]	2g/
.	.	4a\	.
.	.	1g	2b-\
1d	.	.	2a/
.	.	2f#i\	2a/
=39	=39	=39	=39
2.G\	2.d\	0g	1g
4A\	4c\	.	.
2B-\	2d\	.	1r
2c\	2e\	.	.
=40	=40	=40	=40
2.A\	2.f\	0r	0r
4G\	4e\	.	.
2F\	2d\	.	.
2E\	2c#i\	.	.
=41	=41	=41	=41
2D\	1d	2r	2r
2B-\	.	2f\	2dd\
2B-\	1r	2f\	2dd\
2B-\	.	2f\	2dd\
=42	=42	=42	=42
2B-\	2r	2d\	2dd\
2c\	2c\	2e\	2g/
2A\	2c\	2f\	2a/
2G\	2d\	2g\	2b-\
=43	=43	=43	=43
2A\	4c\	2e\	1cc
.	4B-\	.	.
2A\	4A/	2c\	.
.	4G/	.	.
2D\	2B-\	2d\	1r
4D\	[2A/	4d\	.
4D\	.	4d\	.
=44	=44	=44	=44
1E	4A/]	1G	0r
.	4G/	.	.
.	1g	.	.
1D	.	1A	.
.	2f#i\	.	.
=45	=45	=45	=45
2G\	2g\	2G/	0r
2B-\	2d\	2g\	.
1A	2d\	2g\	.
.	2c\	2f\	.
=46	=46	=46	=46
1G	2d\	2g\	2r
.	2B-\	2d\	2dd\
1r	1A	2e\	2dd\
.	.	2e\	2cc\
=47	=47	=47	=47
0r	0r	1d	2dd\
.	.	.	2a/
.	.	1g	2b-\
.	.	.	2b-\
=48	=48	=48	=48
2r	2r	1f	1a
1d	2d\	.	.
.	1f	1d	1r
2B-\	.	.	.
=49	=49	=49	=49
2c\	2e\	0r	0r
2G\	2d\	.	.
1A	1f	.	.
=50	=50	=50	=50
0G	1g	0r	2r
.	.	.	2dd\
.	2r	.	2ee\
.	2g\	.	[2dd\
=51	=51	=51	=51
0r	2f\	0r	4dd\]
.	.	.	4cc\
.	2e\	.	1cc
.	1d	.	.
.	.	.	2bni\
=52	=52	=52	=52
2r	1c	2r	2cc\
2.C/	.	1g	2.gg\
.	2r	.	.
4D\	.	.	4ff\
4E\	2c\	2g\	2ee\
4F\	.	.	.
=53	=53	=53	=53
2G\	2B-\	2g\	2dd\
2C/	2c\	2g\	1cc
2G\	1d	2g\	.
2G\	.	2g\	2bni\
=54	=54	=54	=54
*M3/1	*M3/1	*M3/1	*M3/1
*met(3)	*met(3)	*met(3)	*met(3)
0C	0c	0g	0cc
1r	1r	1r	1r
=55	=55	=55	=55
0BB-	0f	0b-	0dd
1F	1f	1a	1cc
=56	=56	=56	=56
1BB-	1f	1b-	1dd
1F	1f	1a	1cc
1G	1d	1g	1b-
=57	=57	=57	=57
*M2/1	*M2/1	*M2/1	*M2/1
*met(C|)	*met(C|)	*met(C|)	*met(C|)
0D;	0d;	0f;	0a;
=58	=58	=58	=58
1G	1G	1r	0r
2D\	1F	1d	.
2F\	.	.	.
=59	=59	=59	=59
1E	1G	1c	0r
1D	1A	1d	.
=60	=60	=60	=60
1.A	2.c\	2e\	0r
.	.	1c	.
.	4d\	.	.
.	4e\	.	.
.	4d\	.	.
4G\	2f\	4B-\	.
4F\	.	4A/	.
=61	=61	=61	=61
2G\	2e\	2B-\	0r
2D\	1d	2A/	.
1E	.	2A/	.
.	2c#i\	2G/	.
=62	=62	=62	=62
0D	0d	1A	1r
.	.	2r	1dd
.	.	2d\	.
=63	=63	=63	=63
0r	0r	2e\	2g/
.	.	2f\	2a/
.	.	4g\	2b-\
.	.	4f\	.
.	.	4e\	2cc\
.	.	4d\	.
=64	=64	=64	=64
0r	0r	2c\	2.a/
.	.	1f	.
.	.	.	8g/L
.	.	.	8f/J
.	.	.	1g
.	.	2e\	.
=65	=65	=65	=65
1.D	2B-\	2.f\	[0f
.	2A/	.	.
.	.	8e\L	.
.	.	8d\J	.
.	2B-\	1d	.
2D\	2A/	.	.
=66	=66	=66	=66
1D	4B-\	2r	0f]
.	4A/	.	.
.	4B-\	1d	.
.	4A/	.	.
1D	2B-\	.	.
.	2A/	2d\	.
=67	=67	=67	=67
2G\	2B-\	4d\	2b-\
.	.	4e\	.
2A\	2c\	4f\	2a/
.	.	8e\L	.
.	.	8f\J	.
2G\	2d\	4g\	2b-\
.	.	4f\	.
2A\	2c\	4f\	2a/
.	.	8e\L	.
.	.	8f\J	.
=68	=68	=68	=68
2.G\	1d	2g\	4b-\
.	.	.	4a/
.	.	2.d\	4b-\
4A\	.	.	4a/
2G\	2B-\	.	2b-\
.	.	4e\	.
2F\	2c\	4f\	[2a/
.	.	8e\L	.
.	.	8f\J	.
=69	=69	=69	=69
1E	1G	2g\	4a/]
.	.	.	4g/
.	.	2c\	1g
1D	1A	1d	.
.	.	.	2f#i/
=70	=70	=70	=70
0Gl	0Gl	0dl	0gl
!!LO:LB:i:g=z
=71||	=71||	=71||	=71||
*>C	*>C	*>C	*>C
*clefF4	*clefGv2	*clefGv2	*clefG2
*k[b-]	*k[b-]	*k[b-]	*k[b-]
*M2/1	*M2/1	*M2/1	*M2/1
*met(C|)	*met(C|)	*met(C|)	*met(C|)
!!section: Et resurrexit
!!!OMD: Et resurrexit
2.G\	0g	0r	0r
4A\	.	.	.
2B-\	.	.	.
2c\	.	.	.
=72	=72	=72	=72
2d\	2f\	0r	0r
2B-\	2d\	.	.
2c\	2e\	.	.
2d\	2f\	.	.
=73	=73	=73	=73
1G	1g	2r	2.dd\
.	.	2g\	.
.	.	.	4ee\
1r	1r	2f\	2ff\
.	.	2g\	[2ee\
=74	=74	=74	=74
0r	0r	2a\	2ee\]
.	.	2d\	1dd
.	.	1e	.
.	.	.	2cc#i\
=75	=75	=75	=75
2r	2r	1d	1dd
2G\	2d\	.	.
1A	4c\	1r	1r
.	4B-\	.	.
.	4A/	.	.
.	4G/	.	.
=76	=76	=76	=76
2G\	2B-\	1r	1r
2F\	2A/	.	.
1G	2G/	2r	2r
.	[2g\	2B-\	2dd\
=77	=77	=77	=77
1A	2g\]	1c	4cc\
.	.	.	4b-\
.	2f\	.	4a/
.	.	.	4g/
2G\	2g\	2d\	2b-\
2F\	2d\	2f\	[2a/
=78	=78	=78	=78
2G\	2B-\	2e\	4a/]
.	.	.	4g/
2E\	2G/	2c\	1g
1D	1A	1d	.
.	.	.	2f#i/
=79	=79	=79	=79
1d	0G	1r	1g
1r	.	1d	2r
.	.	.	[2g/
=80	=80	=80	=80
0r	0r	2e\	2g/]
.	.	2f\	2a/
.	.	2g\	2b-\
.	.	2f\	2cc\
=81	=81	=81	=81
0r	0r	2g\	2b-\
.	.	2.a\	1cc
.	.	4g\	.
.	.	4f\	2dd\
.	.	4e\	.
=82	=82	=82	=82
2r	2r	2d\	2r
2D\	2d\	2a\	2dd\
2A\	2c\	2a\	2ee\
2D\	2d\	2a\	2ff\
=83	=83	=83	=83
2A\	2e\	2a\	2ee\
2D\	2f\	2a\	2dd\
2A\	2e\	2a\	2dd\
2A\	2e\	2a\	2cc#i\
=84	=84	=84	=84
0D	[0d	1f	0dd
.	.	2r	.
.	.	2a\	.
=85	=85	=85	=85
1G	1d]	2.g\	2r
.	.	.	2dd\
.	.	4f\	.
1r	2r	1e	2cc\
.	2g\	.	2b-\
=86	=86	=86	=86
2r	2f\	0r	2a/
2c\	2e\	.	2g/
2B-\	2d\	.	2b-\
2A\	2c\	.	2cc\
=87	=87	=87	=87
2G\	4B-\	0r	1dd
.	4A/	.	.
2F\	1d	.	.
2E\	.	.	1r
2E\	2c#i\	.	.
=88	=88	=88	=88
1D	1d	2r	1r
.	.	2a\	.
1A	2r	2a\	2r
.	2c\	2a\	2ee\
=89	=89	=89	=89
1r	2d\	4a\	2dd\
.	.	4g\	.
.	2e\	4g\	2cc\
.	.	8f\L	.
.	.	8g\J	.
2r	1d	1a	2dd\
[2D\	.	.	4d/
.	.	.	4e/
=90	=90	=90	=90
4D\]	2r	2.a\	4f/
4E\	.	.	4g/
4F\	2d\	.	4a/
4G\	.	8g\L	4b-\
.	.	8f\J	.
2A\	2c\	2e\	2cc\
2B-\	2d\	2d\	[2b-\
=91	=91	=91	=91
2.c\	1A	1e	4b-\]
.	.	.	4a/
.	.	.	1a
8B-\L	.	.	.
8c\J	.	.	.
1d	1B-	2d\	.
.	.	2G/	2g/
=92	=92	=92	=92
2.D\	1A	2d\	1a
.	.	2.f\	.
4E\	.	.	.
2F\	1r	.	1r
.	.	4e\	.
2G\	.	[2d\	.
=93	=93	=93	=93
1E	2r	2d\]	2r
.	2G/	2c\	2g/
1D	2A/	4d\	4f/
.	.	4e\	4g/
.	2d\	4f\	4a/
.	.	4g\	4b-\
=94	=94	=94	=94
0r	2c\	2e\	2cc\
.	2B-\	2d\	2dd\
.	1A	2e\	2dd\
.	.	2e\	2cc#i\
=95	=95	=95	=95
2.D\	2.d\	1d	1dd
4E\	4c\	.	.
2F\	2d\	1r	1r
2G\	2e\	.	.
=96	=96	=96	=96
2A\	2f\	0r	0r
4A\	4f\	.	.
4G\	4e\	.	.
4F\	2d\	.	.
4G\	.	.	.
2E\	2c#i\	.	.
=97	=97	=97	=97
1D	1d	2r	2r
.	.	1d	1dd
1r	1r	.	.
.	.	2e\	2g/
=98	=98	=98	=98
0r	0r	2f\	2a/
.	.	2g\	2b-\
.	.	2.e\	1cc
.	.	8d\L	.
.	.	8c\J	.
=99	=99	=99	=99
0r	0r	1c	2.cc\
.	.	.	4dd\
.	.	2.f\	2.cc\
.	.	4g\	4b-\
=100	=100	=100	=100
1r	0r	2f\	2a/
.	.	2e\	2g/
2r	.	2d\	1a
2D\	.	2f\	.
=101	=101	=101	=101
1G	2r	2.g\	1b-
.	2G/	.	.
.	.	4f\	.
2C/	1c	4e\	2.cc\
.	.	4d\	.
2C/	.	2e\	.
.	.	.	4b-\
=102	=102	=102	=102
1D	2F/	2f\	2a/
.	2F/	1d	2b-\
1E	1G	.	1g
.	.	2c#i\	.
=103	=103	=103	=103
1D	1A	1d	1f
3%2B-V	3%2dV	3%2gV	1r
3c\Z	3e\Z	3a\Z	.
=104	=104	=104	=104
3%2dV	3%2fV	3%2b-V	0r
3c\Z	3e\Z	3a\Z	.
3d\V	3f\V	3b-\V	.
3B-\	3d\	3g\	.
3c\Z	3e\Z	3a\Z	.
=105	=105	=105	=105
3%2dV	3%2fV	3%2b-V	0r
3c\Z	3e\Z	3a\Z	.
3B-\V	3%2dV	3%2gV	.
3%2AZ	.	.	.
.	3c\Z	3f#i\Z	.
=106	=106	=106	=106
0Gl	0dl	0gl	0b-l
!!LO:LB:i:g=z
=107||	=107||	=107||	=107||
*>D	*>D	*>D	*>D
*clefF4	*clefGv2	*clefGv2	*clefG2
*k[b-]	*k[b-]	*k[b-]	*k[b-]
*M2/1	*M2/1	*M2/1	*M2/1
*met(C|)	*met(C|)	*met(C|)	*met(C|)
!!section: Qui cum Patre
!!!OMD: Qui cum Patre
0r	0r	1a	1r
.	.	1f	1dd
=108	=108	=108	=108
0r	0r	1g	1b-
.	.	1a	1cc
=109	=109	=109	=109
0r	0r	2r	2dd\
.	.	2g\	2ee\
.	.	2.a\	2.ff\
.	.	4g\	4ee\
=110	=110	=110	=110
0r	1r	2f\	2dd\
.	.	2e\	2cc#i\
.	2.d\	1d	1dd
.	4c\	.	.
=111	=111	=111	=111
2D\	2d\	0r	0r
2C/	2e\	.	.
2.D\	2f\	.	.
.	[2d\	.	.
4F\	.	.	.
=112	=112	=112	=112
1E	2d\]	0r	0r
.	2c#i\	.	.
1D	1d	.	.
=113	=113	=113	=113
0r	0r	1g	2r
.	.	.	1dd
.	.	2f\	.
.	.	2e\	2cc\
=114	=114	=114	=114
2r	0r	2.d\	2b-\
1D	.	.	2a/
.	.	4c\	.
.	.	2B-\	2d/
2C/	.	2c\	[2g/
=115	=115	=115	=115
2D\	1r	1A	2g/]
2D\	.	.	2f#i/
1E	2r	2G/	1g
.	[2c\	[2g\	.
=116	=116	=116	=116
1G	2c\]	4g\]	2r
.	.	4g\	.
.	2B-\	4g\	2dd\
.	.	4g\	.
1A	2c\	2e\	4cc\
.	.	.	4b-\
.	2c\	[2f\	4a/
.	.	.	4g/
=117	=117	=117	=117
1D	1d	4f\]	2b-\
.	.	4e\	.
.	.	1d	2a/
1E	2G/	.	2g/
.	2c\	2c\	4f/
.	.	.	4e/
=118	=118	=118	=118
0D	2B-\	[0d	2f/
.	4A/	.	1g
.	4G/	.	.
.	1A	.	.
.	.	.	2f#i/
=119	=119	=119	=119
2r	0G	1d]	[0g
1d	.	.	.
.	.	1r	.
2d\	.	.	.
=120	=120	=120	=120
2c\	2r	0r	1g]
2B-\	1g	.	.
2c\	.	.	1r
2c\	2g\	.	.
=121	=121	=121	=121
2d\	2f\	0r	0r
4c\	2e\	.	.
4B-\	.	.	.
4A\	2f\	.	.
4G\	.	.	.
[2c\	4e\	.	.
.	4d\	.	.
=122	=122	=122	=122
4c\]	4e\	0r	0r
4B-\	4d\	.	.
4A\	1g	.	.
4G\	.	.	.
2A\	.	.	.
2A\	2f#i\	.	.
=123	=123	=123	=123
0G	0g	1r	2r
.	.	.	2dd\
.	.	1g	2ee-i\
.	.	.	[2dd\
=124	=124	=124	=124
0r	0r	2.f\	2dd\]
.	.	.	2cc\
.	.	4e\	.
.	.	2d\	2b-\
.	.	2c\	4cc\
.	.	.	4b-\
=125	=125	=125	=125
0r	0r	2d\	4a/
.	.	.	4f/
.	.	2e-\	2b-\
.	.	2c\	2b-\
.	.	2c\	2a/
=126	=126	=126	=126
1r	0r	2B-\	0b-
.	.	2G/	.
1G	.	2r	.
.	.	2g\	.
=127	=127	=127	=127
2A\	1c	2e\	2r
2A\	.	2e\	2cc\
1D	2d\	2f\	2a/
.	2d\	2d\	2a/
=128	=128	=128	=128
2r	1G	2g\	2b-\
2E\	.	2g\	2g/
1F	2r	2.f\	2cc\
.	2A/	.	2cc\
.	.	4e\	.
=129	=129	=129	=129
1G	1B-	4d\	2.b-\
.	.	4c\	.
.	.	2d\	.
.	.	.	4a/
1C	1c	2e\	4g/
.	.	.	4f/
.	.	[2c\	[2g/
=130	=130	=130	=130
1D	1F	2c\]	2g/]
.	.	2B-\	1f
1C	1G	1c	.
.	.	.	2e/
=131	=131	=131	=131
1F	1F	2r	1f
.	.	1d	.
1r	1r	.	2r
.	.	2c\	[2g/
=132	=132	=132	=132
0r	0r	2d\	2g/]
.	.	2d\	2f/
.	.	2e\	2g/
.	.	2e\	2g/
=133	=133	=133	=133
0r	0r	2f\	2a/
.	.	2f\	2a/
.	.	2.g\	2b-\
.	.	.	2b-\
.	.	4f\	.
=134	=134	=134	=134
0r	0r	4e\	2.cc\
.	.	4d\	.
.	.	2c\	.
.	.	.	4b-\
.	.	2.d\	4a/
.	.	.	4g/
.	.	.	[2b-\
.	.	4c\	.
=135	=135	=135	=135
0r	0r	2B-\	4b-\]
.	.	.	4a/
.	.	2c\	1g
.	.	1A	.
.	.	.	2f#i/
=136	=136	=136	=136
2r	2r	1G	1g
2B-\	2d\	.	.
2c\	2e\	1r	1r
2d\	2f\	.	.
=137	=137	=137	=137
1G	1g	1r	1r
1r	1r	2.g\	2dd\
.	.	.	2dd\
.	.	4a\	.
=138	=138	=138	=138
0r	0r	2g\	2ee\
.	.	2f\	2dd\
.	.	1e	2dd\
.	.	.	2cc#i\
=139	=139	=139	=139
1G	2r	1d	2.dd\
.	2d\	.	.
.	.	.	8cc\L
.	.	.	8b-\J
1A	2.c\	2r	1a
.	.	2f\	.
.	4A/	.	.
=140	=140	=140	=140
2G\	2B-\	2e\	0r
2F\	1A	1d	.
1E	.	.	.
.	2G/	2c#i\	.
=141	=141	=141	=141
2D\	1A	2d\	2r
2D\	.	2d\	2dd\
1A	2r	1e	2cc\
.	2c\	.	2a/
=142	=142	=142	=142
2D\	2d\	2f\	2b-\
2F\	2c\	2f\	2a/
2G\	2B-\	2e\	2g/
2F\	[2c\	2f\	[2a/
=143	=143	=143	=143
2D\	4c\]	2g\	2a/]
.	4B-\	.	.
2E\	2G/	2c\	1g
1D	2A/	1d	.
.	2A/	.	2f/
=144	=144	=144	=144
1E-	1G	2r	4g/
.	.	.	4a/
.	.	2g\	4b-\
.	.	.	4cc\
1D	1B-	2f\	4dd\
.	.	.	4ee\
.	.	2d\	4ff\
.	.	.	4gg\
=145	=145	=145	=145
1C	1c	1e	4ee\
.	.	.	4dd\
.	.	.	4cc\
.	.	.	4b-\
2r	2.d\	2f\	4a/
.	.	.	4g/
2G\	.	2g\	2b-\
.	4B-\	.	.
=146	=146	=146	=146
2F\	2c\	1c	2a/
2E\	2G/	.	1g
1D	1A	1d	.
.	.	.	2f#i/
=147	=147	=147	=147
0Gl	0Gl	0dl	0gl
==	==	==	==
*-	*-	*-	*-
!!!RDF**kern: l=long note in original notation
!!!RDF**kern: i=editorial accidental
!!!RDF**kern: V=start of tuplet marker
!!!RDF**kern: Z=end of tuplet marker
!!!ENC:	Megan K. Eagen 2014/10/02
!!!END:	2014/10/02/
!!!EED:	Jesse Rodin
!!!EEV:	2014/10/12/
!!!ONB:	Translated from MusicXML and edited on 2014/10/12/ by Craig Sapp
!!muse2ps: C^@{COM}^i2I150v85,85,85,150c160
